assets/svgs/valentine-color/ValentineColor1.svg

<svg xmlns="http://www.w3.org/2000/svg" data-name="Layer 1" viewBox="0 0 128 128"><path fill="#fff3f3" d="M33.017 55.238h61.966v44.676H33.017z"/><path fill="#fc574f" d="M73.834 68.685A7.08 7.08 0 0064 68.517a7.077 7.077 0 00-10.011 9.993l-.009.009.185.186L64 88.539l9.834-9.839.186-.186-.009-.009a7.08 7.08 0 00-.177-9.82zM28.086 45.5h71.828v9.738H28.086z"/><path fill="#30317b" d="M64 66.9a8.327 8.327 0 00-11.059 12.315 1.261 1.261 0 00.155.188l10.02 10.02a1.25 1.25 0 001.768 0L74.9 79.4a1.242 1.242 0 00.152-.185A8.327 8.327 0 0064 66.9zm8.951 2.664a5.811 5.811 0 01.144 8.091 1.246 1.246 0 00-.086.1L64 86.772l-8.951-8.951-.057-.058a.77.77 0 00-.087-.1 5.827 5.827 0 018.242-8.228 1.249 1.249 0 001.705 0 5.809 5.809 0 018.099.133z"/><path fill="#30317b" d="M99.914 44.25H80.127a9.95 9.95 0 10-16.1-10.334A7.613 7.613 0 0052.84 44.25H28.086a1.25 1.25 0 00-1.25 1.25v9.738a1.25 1.25 0 001.25 1.25h3.681v43.426a1.25 1.25 0 001.25 1.25h61.966a1.25 1.25 0 001.25-1.25V60.5a1.25 1.25 0 00-2.5 0v38.164H34.267V56.488H39a1.25 1.25 0 000-2.5h-9.664V46.75h69.328v7.238H45.125a1.25 1.25 0 000 2.5h54.79a1.25 1.25 0 001.25-1.25V45.5a1.25 1.25 0 00-1.251-1.25zm-33.82-5.937v-1.52a7.457 7.457 0 117.457 7.457h-7.457v-5.125a7.77 7.77 0 00-.033-.65 1.162 1.162 0 00.033-.162zm-12.75.813a5.125 5.125 0 0110.25 0v5.124h-5.125a5.131 5.131 0 01-5.125-5.125z"/></svg>

<svg id="Layer_1" data-name="Layer 1" xmlns="http://www.w3.org/2000/svg" viewBox="0 0 128 128"><title>VALENTINE GIFT</title><rect x="33.017" y="55.238" width="61.966" height="44.676" style="fill:#fff3f3"/><path d="M73.834,68.685A7.08,7.08,0,0,0,64,68.517,7.077,7.077,0,0,0,53.989,78.51l-.009.009.185.186L64,88.539,73.834,78.7l.186-.186-.009-.009A7.08,7.08,0,0,0,73.834,68.685Z" style="fill:#fc574f"/><rect x="28.086" y="45.5" width="71.828" height="9.738" style="fill:#fc574f"/><path d="M64,66.9A8.327,8.327,0,0,0,52.941,79.215a1.261,1.261,0,0,0,.155.188l10.02,10.02a1.25,1.25,0,0,0,1.768,0L74.9,79.4a1.242,1.242,0,0,0,.152-.185A8.327,8.327,0,0,0,64,66.9Zm8.951,2.664a5.811,5.811,0,0,1,.144,8.091,1.246,1.246,0,0,0-.086.1L64,86.772l-8.951-8.951-.057-.058c-.027-.036-.056-.071-.087-.1a5.827,5.827,0,0,1,8.242-8.228,1.249,1.249,0,0,0,1.705,0A5.809,5.809,0,0,1,72.951,69.568Z" style="fill:#30317b"/><path d="M99.914,44.25H80.127a9.95,9.95,0,1,0-16.1-10.334A7.613,7.613,0,0,0,52.84,44.25H28.086a1.25,1.25,0,0,0-1.25,1.25v9.738a1.25,1.25,0,0,0,1.25,1.25h3.681V99.914a1.25,1.25,0,0,0,1.25,1.25H94.983a1.25,1.25,0,0,0,1.25-1.25V60.5a1.25,1.25,0,0,0-2.5,0V98.664H34.267V56.488H39a1.25,1.25,0,0,0,0-2.5H29.336V46.75H98.664v7.238H45.125a1.25,1.25,0,0,0,0,2.5h54.79a1.25,1.25,0,0,0,1.25-1.25V45.5A1.25,1.25,0,0,0,99.914,44.25Zm-33.82-5.937v-1.52a7.457,7.457,0,1,1,7.457,7.457H66.094V39.125c0-.219-.015-.435-.033-.65A1.162,1.162,0,0,0,66.094,38.313Zm-12.75.813a5.125,5.125,0,0,1,10.25,0V44.25H58.469A5.131,5.131,0,0,1,53.344,39.125Z" style="fill:#30317b"/></svg>
